X:101
M:6/8
L:1/8
K:A
|: E2e e^de | E2=d dcd | ced cBA | GBA GFE | A2a A2a | A2a agf | edc BAG | G3 [A,3A3] :|

